packages/ui-icons/svg/Solid/subaccounts.svg

<svg viewBox="0 0 1920 1920" version="1.1" xmlns="http://www.w3.org/2000/svg">
    <path d="M677.647059 0L677.647059 564.705882 903.529412 564.705882 903.529412 865.807059 225.769412 865.807059 225.769412 1355.29412 0 1355.29412 0 1920 564.705882 1920 564.705882 1355.29412 338.710588 1355.29412 338.710588 978.861176 903.529412 978.861176 903.529412 1355.29412 677.647059 1355.29412 677.647059 1920 1242.24 1920 1242.24 1355.29412 1016.47059 1355.29412 1016.47059 978.861176 1581.17647 978.861176 1581.17647 1355.29412 1355.18118 1355.29412 1355.18118 1920 1920 1920 1920 1355.29412 1694.11765 1355.29412 1694.11765 865.807059 1016.47059 865.807059 1016.47059 564.705882 1242.24 564.705882 1242.24 0z" stroke="none" stroke-width="1" fill-rule="evenodd"/>
</svg>

<svg viewBox="0 0 1920 1920" xmlns="http://www.w3.org/2000/svg">
    <path d="M677.647 0v564.706H903.53v301.101H225.77v489.487H0V1920h564.706v-564.706H338.71V978.861h564.818v376.433H677.647V1920h564.593v-564.706h-225.77V978.861h564.706v376.433h-225.995V1920H1920v-564.706h-225.882V865.807H1016.47V564.706h225.769V0z" fill-rule="evenodd"/>
</svg>
